!!!OTL: 204a. Klage einer betrogenen Graserin.
!!!ARE: Europa, Mitteleuropa, Deutschland, Vormark, Perleberg, Klein Welle
!!!SCT: E0204A
!!!TXL: @@DE
!!!YEM: Copyright 1995, estate of Helmut Schaffrath.
**kern	**text
*ICvox	*
*M2/4	*
*k[b-]	*
*F:	*
!LO:TX:a:t=Klein Welle bei Perleberg in der Vormark.	!
{16fL	Es
16aJ	.
=1	=1
4cc	graſt
8ccL	ein
8ddJ	.
=2	=2
4.cc	Mägd-
8b-	-lein
=3	=3
4a	hübſch
8ccL	und
8aJ	.
=4	=4
4.g}	fein
{8dd	auf
=5	=5
8cc	ei-
8a	-nem
8b-	grü-
8g	-nen
=6	=6
8f	Wie-
8a	-ſe-
8a}	-lein,
{8f	ja
=7	=7
8gL	Wie-
8aJ	.
8b-L	-ſe-
8gJ	.
=8	=8
4.a;}	-lein.
==	==
!!!AGN: erzaehlendes Volks - Lied, Todes - Ahnung; betrogene Liebe
!!!ONB: ESAC (Essen Associative Code) Database: ERK1
!!!AMT: simple duple
!!!AIN: vox
!!!EED: Helmut Schaffrath
!!!EEV: 1.0
!!!GTL: Todtensagen (Todesahnung, Geisterliebe, Grabesstimmen)
!!!URL-scan: https://rosdok.uni-rostock.de/mcrviewer/recordIdentifier/rosdok_ppn745146120/iview2/phys_0678.iview2?x=-128.7727644188933&y=1065.064119284507&scale=0.5870222003877484&rotation=0&layout=singlePageLayout
!!!ENC: Anna Maria Matuszewska
!!!EEV: 2024/06/12
*-	*-
